images_breeze_svg/cmd/32/rejectalltrackedchanges.svg

<svg viewBox="0 0 32 32" xmlns="http://www.w3.org/2000/svg"><g fill="#da4453" stroke-width="1.5"><path d="m18.072266 8.5c-.03825.0189-1.072266 1.072266-1.072266 1.072266l6.427734 6.427734-6.427734 6.427734 1.072266 1.072266 6.427734-6.427734 6.427734 6.427734 1.072266-1.072266-6.427734-6.427734 6.427734-6.427734-1.072266-1.072266-6.427734 6.427734z"/><path d="m1.072266 8.5c-.03825.0189-1.072266 1.072266-1.072266 1.072266l6.427734 6.427734-6.427734 6.427734 1.072266 1.072266 6.427734-6.427734 6.427734 6.427734 1.072266-1.072266-6.427734-6.427734 6.427734-6.427734-1.072266-1.072266-6.427734 6.427734z"/></g></svg>

<?xml version="1.0" encoding="UTF-8" standalone="no"?>
<svg
   xmlns:dc="http://purl.org/dc/elements/1.1/"
   xmlns:cc="http://creativecommons.org/ns#"
   xmlns:rdf="http://www.w3.org/1999/02/22-rdf-syntax-ns#"
   xmlns:svg="http://www.w3.org/2000/svg"
   xmlns="http://www.w3.org/2000/svg"
   xmlns:sodipodi="http://sodipodi.sourceforge.net/DTD/sodipodi-0.dtd"
   xmlns:inkscape="http://www.inkscape.org/namespaces/inkscape"
   viewBox="0 0 32 32"
   version="1.1"
   id="svg4"
   sodipodi:docname="rejectalltrackedchanges.svg"
   inkscape:version="0.92.4 (unknown)"
   inkscape:export-filename="/home/rizmut/Dokumen/Rizmut/Github/libreoffice-style-breeze/images_breeze/cmd/32/rejectalltrackedchanges.png"
   inkscape:export-xdpi="96"
   inkscape:export-ydpi="96">
  <metadata
     id="metadata10">
    <rdf:RDF>
      <cc:Work
         rdf:about="">
        <dc:format>image/svg+xml</dc:format>
        <dc:type
           rdf:resource="http://purl.org/dc/dcmitype/StillImage" />
        <dc:title />
      </cc:Work>
    </rdf:RDF>
  </metadata>
  <defs
     id="defs8" />
  <sodipodi:namedview
     pagecolor="#ffffff"
     bordercolor="#666666"
     borderopacity="1"
     objecttolerance="10"
     gridtolerance="10"
     guidetolerance="10"
     inkscape:pageopacity="0"
     inkscape:pageshadow="2"
     inkscape:window-width="1360"
     inkscape:window-height="714"
     id="namedview6"
     showgrid="true"
     inkscape:zoom="5.2149125"
     inkscape:cx="3.6243314"
     inkscape:cy="-4.5463824"
     inkscape:window-x="0"
     inkscape:window-y="28"
     inkscape:window-maximized="1"
     inkscape:current-layer="svg4">
    <inkscape:grid
       type="xygrid"
       id="grid817" />
  </sodipodi:namedview>
  <path
     d="M 18.072266,8.5 C 18.034016,8.5189 17,9.572266 17,9.572266 L 23.427734,16 17,22.427734 18.072266,23.5 24.5,17.072266 30.927734,23.5 32,22.427734 25.572266,16 32,9.572266 30.927734,8.5 24.5,14.927734 Z"
     id="path2"
     inkscape:connector-curvature="0"
     style="fill:#da4453;fill-opacity:1;stroke-width:1.5"
     sodipodi:nodetypes="ccccccccccccc" />
  <path
     sodipodi:nodetypes="ccccccccccccc"
     style="fill:#da4453;fill-opacity:1;stroke-width:1.5"
     inkscape:connector-curvature="0"
     id="path819"
     d="M 1.072266,8.5 C 1.034016,8.5189 0,9.572266 0,9.572266 L 6.427734,16 0,22.427734 1.072266,23.5 7.5,17.072266 13.927734,23.5 15,22.427734 8.572266,16 15,9.572266 13.927734,8.5 7.5,14.927734 Z" />
</svg>
